X:1
T:Grandpont, 10.10
T:Grandpont, 10.10
T:John Stainer (1840-1901)
T:Public Domain Courtesy of the Cyber Hymnal™
C:John Stainer (1840-1901)
Z:Public Domain
Z:Courtesy of the Cyber Hymnal™
%%score ( 1 2 ) 3
L:1/8
Q:1/4=110
M:4/4
K:E
V:1 treble 
V:2 treble 
V:3 bass 
V:1
 [EG]2 | [EG]2 [B,F]2 [B,E]2 C2 | [B,E]4 [B,E]4 | D2 A2 z2 G2 | [EG]4 [DF]2 [FB]2 | %5
 [^EB]2 [FA]2 [=DG]2 [CE]2 | [CF]4 A4 | [EG]4 F4 | E6 |] %9
V:2
 x2 | x6 C2 | x8 | D4 E4 | x8 | x8 | x4 (C2 D2) | x4 (E2 D2) | E6 |] %9
V:3
 [E,B,]2 | [E,B,]2 [E,A,]2 [E,G,]2 [E,A,]2 | [E,G,]4 [G,B,]4 | [F,A,]4 [E,B,]4 | [B,,B,]6 [B,,D]2 | %5
 [G,,=D]2 [A,,C]2 [B,,B,]2 [C,G,]2 | [A,,A,]4 [F,,A,]4 | ([G,,B,]2 [A,,C]2) [B,,A,]4 | [E,G,]6 |] %9

